X: 876
T: The Humors of Limerick
N:"Collected by Cronin"
B:O'Neill's 876
Z:Transcribed by Dan G. Petersen, dangp@post6.tele.dk
M:6/8
L:1/8
K:G
G2B d2B|g2e d2B|G2B d2B|AcA BGE|
G2B d2B|g2e d2f|g2e d2B|AcA BGE:|
g2a b2g|a2a age|g2ab2a|g2g ged|
g2a b2g|a2a age|g2e d2B|AcA BGE:|


